X:1
T:Title
%%score { ( 1 3 ) | 2 }
L:1/8
M:4/4
K:C
V:1 treble nm="Grand Piano"
V:3 treble 
V:2 bass 
V:1
 z4 z2[Q:1/4=100] [CE][DF] | [EA][EG][Ec][DB] [Fd][Ec][EG][E^G] | [GB]A^GA D2 DE | %3
 FEFG [DB][FA][EG][DF] | EDEF [EG]2 [CE][DF] | [EA][EG][Ec][DB] [Fd][Ec][FB][Gc] | %6
 [GB]A^GA [^Fd]2 [Fd][Fe] | dABc dB[DG][EGA] |[M:3/4] [GB][Ac] [GB][^FA] G2 |[M:1/4] GG | %10
[M:3/4] [Ge][Gc] [GB][Fd] [Ec][EG] |[M:1/4] [Gc][GB] |[M:4/4] [GB]A^GA d2 d[Ac] | B_B=Bc dBAG | %14
 e6[K:bass] z2[K:treble] | [EA][EG][Ec][DB] [Fd][Ec][FB][Gc] | [GB]A^GA [Af]2 [Ge][Gd] | %17
 cGBA GA[GB][Gc] |[M:3/4] [^Fd][FA] BG [Ec]2 |] %19
V:2
 z4 z2 [C,G,][C,G,] | [C,C][C,C][C,G,][C,G,] [C,G,][C,G,][C,C][C,C] | %2
 [F,C][F,CF][F,B,F][F,CF] [F,A,]2 [F,A,C][E,G,C] | %3
 [C,G,B,][^C,G,_B,][D,G,=B,][E,G,B,] [G,,G,][G,,G,][A,,G,][B,,G,] | %4
 [C,G,C][F,G,B,][E,G,C][D,G,D] [C,C]2 [C,G,][C,G,] | %5
 [C,C][C,C][C,G,][C,G,] [C,G,][C,G,][D,G,][E,C] | [F,C][F,CF][F,B,F][F,CF] [D,C]2 [D,C][D,C] | %7
 [G,B,G][CD^F][B,DG][A,DF] [G,B,G][G,DG][K:bass]B,,C, |[M:3/4] [D,D][D,D] [D,D][D,C] [G,B,]2 | %9
[M:1/4] [G,B,][G,B,] |[M:3/4] [C,C][E,C] [G,D][G,B,] [C,C][C,C] |[M:1/4] [E,C][E,C] | %12
[M:4/4] [F,C][F,CF][F,B,F][F,CF] [F,A,F]2 [F,A,F][^F,D] | %13
 [G,DG][G,^CG][G,DG][G,A,G] [G,B,G][G,DG][A,=CG][B,D] | [CG]6[K:bass] [C,G,C][C,G,] | %15
 [C,C][C,C][C,G,][C,G,] [C,G,][C,G,][D,G,][E,C] | [F,C][F,CF][F,B,F][F,CF] [D,D]2 [E,^C][F,D] | %17
 [G,EG][G,CE][K:bass][^F,C_E][F,CE] [G,C=E][F,CD][=F,D][E,C] | %18
[M:3/4] [D,C][D,D][K:treble] [G,DF][G,F][K:bass] [C,G,]2 |] %19
V:3
 x8 | x8 | x8 | x8 | x8 | x8 | x8 | x8 |[M:3/4] x6 |[M:1/4] x2 |[M:3/4] x6 |[M:1/4] x2 | %12
[M:4/4] x8 | x8 | z z/[K:bass] A,/ G,E, C,2 E[K:treble][DF] | x8 | x8 | x8 |[M:3/4] x6 |] %19

